portfolio-htmlcssjs/img/ico_works.svg

<svg fill="none" height="16" viewBox="0 0 21 16" width="21" xmlns="http://www.w3.org/2000/svg"><path d="m4.2.635498c-1.15828 0-2.1.935282-2.1 2.085652v8.34265h2.1v-8.34265h12.6v8.34265h2.1v-8.34265c0-1.15037-.9417-2.085652-2.1-2.085652zm-3.57 11.471102c-.347813 0-.63.2802-.63.6257 0 1.3817 1.12875 2.5028 2.52 2.5028h15.96c1.3912 0 2.52-1.1211 2.52-2.5028 0-.3455-.2822-.6257-.63-.6257z" fill="#fff"/></svg>

<svg width="21" height="16" viewBox="0 0 21 16" fill="none" xmlns="http://www.w3.org/2000/svg">
<path d="M4.2 0.635498C3.04172 0.635498 2.1 1.57078 2.1 2.72115V11.0638H4.2V2.72115H16.8V11.0638H18.9V2.72115C18.9 1.57078 17.9583 0.635498 16.8 0.635498H4.2ZM0.63 12.1066C0.282187 12.1066 0 12.3868 0 12.7323C0 14.114 1.12875 15.2351 2.52 15.2351H18.48C19.8712 15.2351 21 14.114 21 12.7323C21 12.3868 20.7178 12.1066 20.37 12.1066H0.63Z" fill="white"/>
</svg>
